X:1
T:Am Bacherl
T:Am Bacherl
T:für Harmonika (B/Es/As/Des), Hackbrett, Flöte, Gitarre
T:Franz Schwab
T:https://www.stammtischmusik.at/noten/ambacherlgs.htm
C:Franz Schwab
%%score { 1 | 2 } 3 4 5
L:1/8
Q:1/4=72
M:3/4
K:C
V:1 treble nm="Harmonika" snm="Hm.\n"
V:2 bass 
V:3 treble-8 nm="Akustische Gitarre" snm="Git."
V:4 treble nm="Hackbrett" snm="Hb."
V:5 treble nm="Flöte" snm="Fl."
V:1
 z2 z [_eg] [eg][_Bd] | [df]2 z [df] [df][_Bd] | [c_e]2 z [G_B] [GB][_EG] | %3
 [D_A][F_B] [Bd][DA] [FB][Bd] | [D_A]2 z [df] [df][_Bd] | [c_e]2 z [ce] [ce][_Ac] | %6
 [_Bd]2 z [DB] [DB][D_A] | [_EG][G_B] [G_e][EG] [GB][Ge] | [_EG]2 z [_eg] [eg][_Bd] | %9
 [df]2 z [df] [df][_Bd] | [c_e]2 z [G_B] [GB][_EG] | [D_A][F_B] [Bd][DA] [FB][Bd] | %12
 [D_A]2 z z [_B,D] z/ [B,D]/ | [_B,D][C_E] [DF][EG] [F_A][G_B] | [_Ac][G_B] [FA][Ac] [GB][FA] | %15
 [_EG]2 [DF][EG] [G_B][F_A] | [_EG]2 z [_eg] [eg][_Bd] | [df]2 z [df] [df][_Bd] | %18
 [c_e]2 z [G_B] [GB][_EG] | [D_A][F_B] [Bd][DA] [FB][Bd] | [D_A]2 z [df] [df][_Bd] | %21
 [c_e]2 z [ce] [ce][_Ac] | [_Bd]2 z [DB] [DB][D_A] | [_EG][G_B] [G_e][EG] [GB][Ge] | %24
 [_EG]2 z [_eg] [eg][_Bd] | [df]2 z [df] [df][_Bd] | [c_e]2 z [G_B] [GB][_EG] | %27
 [D_A][F_B] [Bd][DA] [FB][Bd] | [D_A]2 z z [_B,D] z/ [B,D]/ | [_B,D][C_E] [DF][EG] [F_A][G_B] | %30
 [_Ac][G_B] [FA][Ac] [GB][FA] | [_EG]2 [DF][EG] [G_B][F_A] | [_EG]2 z z z2 | z6 | z6 | %35
 z2 z [_Ac] [G_B][FA] | [_EG] z/ [G_B]/ [GB][B_e] [EG][GB] | [_B_e] z/ [_EG]/ [EG][GB] [F_A][EG] | %38
 [D_A] z/ [F_B]/ [FB][Bd] [DA][FB] | [_Bd] z/ [D_A]/ [DA][Ac] [GB][FA] | [_EG]2 z z z2 | z6 | z6 | %43
 z2 z [_Ac] [G_B][FA] | [_EG] z/ [G_B]/ [GB][B_e] [EG][GB] | [_B_e] z/ [_EG]/ [EG][GB] [F_A][EG] | %46
 [D_A] z/ [F_B]/ [FB][Bd] [DA][FB] | [_Bd] z/ [D_A]/ [DA][Ac] [GB][FA] | %48
 [_EG]2 z [_Ac] [Ac][_B_d] | [c_e][_B_d] [_Ac][ce] [Bd][Ac] | [_df][c_e] [_Bd][df] [ce][Bd] | %51
 [_eg] z/ [^ce]/ [Gc][eg] [ce][Gc] | [_Ac]2 z2 [_ac'] z/ [ac']/ | [_ac']2 [g_b]2 [fa]2 | %54
 [_eg]2 z [_de] [Gd]2 | [f_a]2 [_eg]2 [_df]2 | [c_e]2 z [_Ac] [Ac][_B_d] | %57
 [c_e][_B_d] [_Ac][ce] [Bd][Ac] | [_df][c_e] [_Bd][df] [ce][Bd] | %59
 [_eg] z/ [^ce]/ [Gc][eg] [ce][Gc] | [_Ac]2 z2 [_ac'] z/ [ac']/ | [_ac']2 [g_b]2 [fa]2 | %62
 [_eg]2 z [_de] [Gd] z | [_eg][_de] [Gd][eg] [de][Gd] | [_E_Ac]2 z [Ac] [Ac][_B_d] | %65
 [c_e][_B_d] [_Ac][ce] [Bd][Ac] | [_df][c_e] [_Bd][df] [ce][Bd] | %67
 [_eg] z/ [_de]/ [Gd][eg] [de][Gd] | [_Ac]2 z2 [_ac'] z/ [ac']/ | [_ac']2 [g_b]2 [fa]2 | %70
 [_eg]2 z [_de] [Gd]2 | [f_a]2 [_eg]2 [_df]2 | [c_e]2 z [_Ac] [Ac][_B_d] | %73
 [c_e][_B_d] [_Ac][ce] [Bd][Ac] | [_df][c_e] [_Bd][df] [ce][Bd] | %75
 [_eg] z/ [^ce]/ [Gc][eg] [ce][Gc] | [_Ac]2 z2 [_ac'] z/ [ac']/ | [_ac']2 [g_b]2 [fa]2 | %78
 [_eg]2 z [_de] [Gd] z | [_eg][_de] [Gd][eg] [de][Gd] | [_E_Ac]4 z2 |] %81
V:2
 z6 | _E,,2 _G,,,,/4 z/4 z/ z G,,,,/ z/ z | _B,,,2 _G,,,,/4 z/4 z/ z G,,,,/ z/ z | %3
 _B,,,2 _D,,,,/4 z/4 z/ z D,,,, z | F,, z _D,,,,/ z/ z D,,,, z | _B,,,2 _D,,,,/4 z/4 z/ z D,,,, z | %6
 _B,,,2 C,,2 D,,2 | _E,,2 _G,,,,/4 z/4 z/ z G,,,,/ z/ z | _B,,,2 _G,,,,/4 z/4 z/ z G,,,,/ z/ z | %9
 _E,,2 _G,,,,/4 z/4 z/ z G,,,,/ z/ z | _B,,,2 _G,,,,/4 z/4 z/ z G,,,,/ z/ z | %11
 _B,,,2 _D,,,,/4 z/4 z/ z D,,,, z | F,, z _D,,,,/ z/ z D,,,, z | _B,,,2 _D,,,,/4 z/4 z/ z D,,,, z | %14
 _B,,,2 C,,2 D,,2 | _E,,2 _B,,,2 G,,,2 | [_G,,,,_E,,]2 z4 | _E,,2 _G,,,,/4 z/4 z/ z G,,,,/ z/ z | %18
 _B,,,2 _G,,,,/4 z/4 z/ z G,,,,/ z/ z | _B,,,2 _D,,,,/4 z/4 z/ z D,,,, z | %20
 F,, z _D,,,,/ z/ z D,,,, z | _B,,,2 _D,,,,/4 z/4 z/ z D,,,, z | _B,,,2 C,,2 D,,2 | %23
 _E,,2 _G,,,,/4 z/4 z/ z G,,,,/ z/ z | _B,,,2 _G,,,,/4 z/4 z/ z G,,,,/ z/ z | %25
 _E,,2 _G,,,,/4 z/4 z/ z G,,,,/ z/ z | _B,,,2 _G,,,,/4 z/4 z/ z G,,,,/ z/ z | %27
 _B,,,2 _D,,,,/4 z/4 z/ z D,,,, z | F,, z _D,,,,/ z/ z D,,,, z | _B,,,2 _D,,,,/4 z/4 z/ z D,,,, z | %30
 _B,,,2 C,,2 D,,2 | _E,,2 _B,,,2 G,,,2 | [_G,,,,_E,,]2 z4 | z6 | z6 | z2 z2 z2 | %36
 _E,,2 _G,,,,/4 z/4 z/ z G,,,,/ z/ z | _B,,,2 _G,,,,/4 z/4 z/ z G,,,,/ z/ z | %38
 _B,,,2 _D,,,,/4 z/4 z/ z D,,,, z | _B,,,2 C,,2 D,,2 | [_G,,,,_E,,]2 z4 | z6 | z6 | z2 C,,2 D,,2 | %44
 _E,,2 _G,,,,/4 z/4 z/ z G,,,,/ z/ z | _B,,,2 _G,,,,/4 z/4 z/ z G,,,,/ z/ z | %46
 _B,,,2 _D,,,,/4 z/4 z/ z D,,,, z | _B,,,2 C,,2 D,,2 | [_G,,,,_E,,]2 z E,, F,,G,, | %49
 _A,,2 B,,,,/4 z/4 z/ z B,,,, z | _D,,2 E,,,,/4 z/4 z/ z E,,,, z | %51
 _E,,2 _G,,,,/4 z/4 z/ z G,,,, z | _A,,2 B,,,,/4 z/4 z/ z B,,,, z | _A,,2 G,,2 F,,2 | %54
 _E,,2 _G,,,,/4 z/4 z/ z G,,,, z | _D,,2 C,,2 _B,,,2 | _A,,2 B,,,,/4 z/4 z/ z B,,,, z | %57
 _A,,2 B,,,,/4 z/4 z/ z B,,,, z | _D,,2 E,,,,/4 z/4 z/ z E,,,, z | %59
 _E,,2 _G,,,,/4 z/4 z/ z G,,,, z | _A,,2 B,,,,/4 z/4 z/ z B,,,, z | _A,,2 G,,2 F,,2 | %62
 _E,,2 _G,,,,/4 z/4 z/ z G,,,, z | _E,,2 F,,2 G,,2 | [B,,,,_A,,]2 z _E,, F,,G,, | %65
 _A,,2 B,,,,/4 z/4 z/ z B,,,, z | _D,,2 E,,,,/4 z/4 z/ z E,,,, z | %67
 _E,,2 _G,,,,/4 z/4 z/ z G,,,, z | _A,,2 B,,,,/4 z/4 z/ z B,,,, z | _A,,2 G,,2 F,,2 | %70
 _E,,2 _G,,,,/4 z/4 z/ z G,,,, z | _D,,2 C,,2 _B,,,2 | _A,,2 B,,,,/4 z/4 z/ z B,,,, z | %73
 _A,,2 B,,,,/4 z/4 z/ z B,,,, z | _D,,2 E,,,,/4 z/4 z/ z E,,,, z | %75
 _E,,2 _G,,,,/4 z/4 z/ z G,,,, z | _A,,2 B,,,,/4 z/4 z/ z B,,,, z | _A,,2 G,,2 F,,2 | %78
 _E,,2 _G,,,,/4 z/4 z/ z G,,,, z | _E,,2 F,,2 G,,2 | [B,,,,_A,,]2 z2 z2 |] %81
V:3
 z z z z z z | _E_B [_eg]B [eg]B | _B,_B [_eg]B [eg]B | _B,F [d_a]F [da]F | _B,F [d_a]F [da]F | %5
 _B,F [d_a]F [da]F | _B,[d_a] C[da] D[da] | _E_B [_eg]B [eg]B | _B,_B [_eg]B [eg]B | %9
 _E_B [_eg]B [eg]B | _B,_B [_eg]B [eg]B | _B,F [d_a]F [da]F | _B,F [d_a]F [da]F | %13
 _B,F [d_a]F [da]F | _B,[d_a] C[da] D[da] | _E z _B, z G, z | !arpeggio![_EG_B_e]2 z _B, CD | %17
 _E_B [_eg]B [eg]B | _B,_B [_eg]B [eg]B | _B,F [d_a]F [da]F | _B,F [d_a]F [da]F | %21
 _B,F [d_a]F [da]F | _B,[d_a] C[da] D[da] | _E_B [_eg]B [eg]B | _B,_B [_eg]B [eg]B | %25
 _E_B [_eg]B [eg]B | _B,_B [_eg]B [eg]B | _B,F [d_a]F [da]F | _B,F [d_a]F [da]F | %29
 _B,F [d_a]F [da]F | _B,[d_a] C[da] D[da] | _E z _B, z G, z | !arpeggio![_EG_B_e]2 z4 | z6 | z6 | %35
 z z z _B, CD | _E_B [_eg]B [eg]B | _B,_B [_eg]B [eg]B | _B,F [d_a]F [da]F | _B,[d_a] C[da] D[da] | %40
 !arpeggio![_EG_B_e]2 z4 | z6 | z6 | z z z _B, CD | _E_B [_eg]B [eg]B | _B,_B [_eg]B [eg]B | %46
 _B,F [d_a]F [da]F | _B,[d_a] C[da] D[da] | !arpeggio![_EG_B_e]2 z E FG | _A,_E [_Ac]E [Ac]E | %50
 F_A [_df]A [df]A | _EG [^cg]G [cg]G | _A,_E [_Ac]E [Ac]E | _A[c_a] G[ca] F[_ea] | %54
 _EG [^cg]G [cg]G | _A[_df] G[df] F[df] | _A,_E [_Ac]E [Ac]E | _A,_E [_Ac]E [Ac]E | %58
 F_A [_df]A [df]A | _EG [^cg]G [cg]G | _A,_E [_Ac]E [Ac]E | _A[c_a] G[ca] F[_ea] | %62
 _EG [^cg]G [cg]G | _E[_dg] F[dg] G[dg] | !arpeggio![_Ac_e_a]2 z _E FG | _A,_E [_Ac]E [Ac]E | %66
 F_A [_df]A [df]A | _EG [_dg]G [dg]G | _A,_E [_Ac]E [Ac]E | _A[c_a] G[ca] F[_ea] | %70
 _EG [^cg]G [cg]G | _A[_df] G[df] F[df] | _A,_E [_Ac]E [Ac]E | _A,_E [_Ac]E [Ac]E | %74
 F_A [_df]A [df]A | _EG [^cg]G [cg]G | _A,_E [_Ac]E [Ac]E | _A[c_a] G[ca] F[_ea] | %78
 _EG [_dg]G [dg]G | _E[_dg] F[dg] G[dg] | !arpeggio![_Ac_e_a]2 z4 |] %81
V:4
 z2 z [_eg] [eg][_Bd] | [df]2 z [df] [df][_Bd] | [c_e]2 z [G_B] [GB][_EG] | %3
 [D_A][F_B] [Bd][DA] [FB][Bd] | [D_A]2 z [df] [df][_Bd] | [c_e]2 z [ce] [ce][_Ac] | %6
 [_Bd]2 z [DB] [DB][D_A] | [_EG][G_B] [G_e][EG] [GB][Ge] | [_EG]2 z [_eg] [eg][_Bd] | %9
 [df]2 z [df] [df][_Bd] | [c_e]2 z [G_B] [GB][_EG] | [D_A][F_B] [Bd][DA] [FB][Bd] | %12
 [D_A]2 z z [_B,D] z/ [B,D]/ | [_B,D][C_E] [DF][EG] [F_A][G_B] | [_Ac][G_B] [FA][Ac] [GB][FA] | %15
 [_EG]2 [DF][EG] [G_B][F_A] | [_EG]2 z [_eg] [eg][_Bd] | [df]2 z [df] [df][_Bd] | %18
 [c_e]2 z [G_B] [GB][_EG] | [D_A][F_B] [Bd][DA] [FB][Bd] | [D_A]2 z [df] [df][_Bd] | %21
 [c_e]2 z [ce] [ce][_Ac] | [_Bd]2 z [DB] [DB][D_A] | [_EG][G_B] [G_e][EG] [GB][Ge] | %24
 [_EG]2 z [_eg] [eg][_Bd] | [df]2 z [df] [df][_Bd] | [c_e]2 z [G_B] [GB][_EG] | %27
 [D_A][F_B] [Bd][DA] [FB][Bd] | [D_A]2 z z [_B,D] z/ [B,D]/ | [_B,D][C_E] [DF][EG] [F_A][G_B] | %30
 [_Ac][G_B] [FA][Ac] [GB][FA] | [_EG]2 [DF][EG] [G_B][F_A] | [_EG]2 z _B, EG | _B z/ _E/ EG FE | %34
 D z/ F/ F_B DF | _B z/ D/ D_A GF | G z/ _B/ B_e GB | _e z/ G/ G_B _AG | _A z/ _B/ Bd AB | %39
 d z/ _A/ Ac _BA | G2 z _B, _EG | _B z/ _E/ EG FE | D z/ F/ F_B DF | _B z/ D/ D_A GF | %44
 _E z/ G/ G_B EG | _e z/ G/ G_B _AG | _A z/ _B/ Bd AB | d z/ _A/ Ac _BA | %48
 [_EG]2 z [_Ac] [Ac][_B_d] | [c_e][_B_d] [_Ac][ce] [Bd][Ac] | [_df][c_e] [_Bd][df] [ce][Bd] | %51
 [_eg] z/ [^ce]/ [Gc][eg] [ce][Gc] | [_Ac]2 z2 [_ac'] z/ [ac']/ | [_ac']2 [g_b]2 [fa]2 | %54
 [_eg]2 z [_de] [Gd]2 | [f_a]2 [_eg]2 [_df]2 | [c_e]2 z [_Ac] [Ac][_B_d] | %57
 [c_e][_B_d] [_Ac][ce] [Bd][Ac] | [_df][c_e] [_Bd][df] [ce][Bd] | %59
 [_eg] z/ [^ce]/ [Gc][eg] [ce][Gc] | [_Ac]2 z2 [_ac'] z/ [ac']/ | [_ac']2 [g_b]2 [fa]2 | %62
 [_eg]2 z [_de] [Gd] z | [_eg][_de] [Gd][eg] [de][Gd] | [_Ac]2 z [Ac] [Ac][_B_d] | %65
 [c_e][_B_d] [_Ac][ce] [Bd][Ac] | [_df][c_e] [_Bd][df] [ce][Bd] | %67
 [_eg] z/ [_de]/ [Gd][eg] [de][Gd] | [_Ac]2 z2 [_ac'] z/ [ac']/ | [_ac']2 [g_b]2 [fa]2 | %70
 [_eg]2 z [_de] [Gd]2 | [f_a]2 [_eg]2 [_df]2 | [c_e]2 z [_Ac] [Ac][_B_d] | %73
 [c_e][_B_d] [_Ac][ce] [Bd][Ac] | [_df][c_e] [_Bd][df] [ce][Bd] | %75
 [_eg] z/ [_de]/ [Gd][eg] [de][Gd] | [_Ac]2 z2 [_ac'] z/ [ac']/ | [_ac']2 [g_b]2 [fa]2 | %78
 [_eg]2 z [_de] [Gd] z | [_eg][_de] [Gd][eg] [de][Gd] | [_Ac]4 z2 |] %81
V:5
 z z z _B BB | f2 z _B BB | G2 z _e e_B | _Bd fB df | _A2 z _b bf | _a2 z a a_e | f2 z f fc | %7
 _B_e BB eB | G2 z _B BB | f2 z _B BB | G2 z _e e_B | _Bd fB df | _A2 z z f z/ f/ | d_e fg _a_b | %14
 c'_b _ac' ba | g4 z z | z2 z _B BB | f2 z _B BB | G2 z _e e_B | _Bd fB df | _A2 z _b bf | %21
 _a2 z a a_e | f2 z f fc | _B_e BB eB | G2 z _B BB | f2 z _B BB | G2 z _e e_B | _Bd fB df | %28
 _A2 z z f z/ f/ | d_e fg _a_b | c'_b _ac' ba | g4 z2 | z6 | z6 | z z/ _B/ Bd _AB | %35
 d z/ _A/ Ac _BA | _e z/ g/ g_b eg | _b z/ _e/ eg fe | d z/ f/ f_b df | _b z/ d/ d_a gf | _e2 z4 | %41
 z6 | z z/ _B/ Bd _AB | d z/ _A/ Ac _BA | _e z/ g/ g_b eg | _b z/ _e/ eg fe | d z/ f/ f_b df | %47
 _b z/ d/ d_a gf | _e2 z4 | z6 | z6 | g z/ g/ _eg ge | _e2 z4 | z6 | z6 | _d'2 c'2 _b2 | _a2 z4 | %57
 z6 | z6 | g z/ g/ _eg ge | _e2 z4 | z6 | z6 | z6 | z z z _e eg | _aa _ea ae | _b_a f_d' c'b | %67
 g z/ g/ _eg ge | _e2 z z e z/ e/ | _e2 e2 c2 | _B2 z G G2 | _d'2 c'2 _b2 | _a2 z _e eg | %73
 _aa _ea ae | _b_a f_d' c'b | g z/ g/ _eg ge | _e2 z z e z/ e/ | _e2 e2 c2 | _B2 z G G2 | %79
 _d'2 c'2 _b2 | _a2 z4 |] %81

